icons/c-sharp.svg

<?xml version="1.0" encoding="UTF-8"?>
<svg width="256px" height="288px" viewBox="0 0 256 288" version="1.1" xmlns="http://www.w3.org/2000/svg" xmlns:xlink="http://www.w3.org/1999/xlink" preserveAspectRatio="xMidYMid">
    <g>
        <path d="M255.569,84.452376 C255.567,79.622376 254.534,75.354376 252.445,71.691376 C250.393,68.089376 247.32,65.070376 243.198,62.683376 C209.173,43.064376 175.115,23.505376 141.101,3.86637605 C131.931,-1.42762395 123.04,-1.23462395 113.938,4.13537605 C100.395,12.122376 32.59,50.969376 12.385,62.672376 C4.064,67.489376 0.015,74.861376 0.013,84.443376 C0,123.898376 0.013,163.352376 0,202.808376 C0,207.532376 0.991,211.717376 2.988,215.325376 C5.041,219.036376 8.157,222.138376 12.374,224.579376 C32.58,236.282376 100.394,275.126376 113.934,283.115376 C123.04,288.488376 131.931,288.680376 141.104,283.384376 C175.119,263.744376 209.179,244.186376 243.209,224.567376 C247.426,222.127376 250.542,219.023376 252.595,215.315376 C254.589,211.707376 255.582,207.522376 255.582,202.797376 C255.582,202.797376 255.582,123.908376 255.569,84.452376" fill="#A179DC" fill-rule="nonzero"></path>
        <path d="M128.182,143.241376 L2.988,215.325376 C5.041,219.036376 8.157,222.138376 12.374,224.579376 C32.58,236.282376 100.394,275.126376 113.934,283.115376 C123.04,288.488376 131.931,288.680376 141.104,283.384376 C175.119,263.744376 209.179,244.186376 243.209,224.567376 C247.426,222.127376 250.542,219.023376 252.595,215.315376 L128.182,143.241376" fill="#280068" fill-rule="nonzero"></path>
        <path d="M255.569,84.452376 C255.567,79.622376 254.534,75.354376 252.445,71.691376 L128.182,143.241376 L252.595,215.315376 C254.589,211.707376 255.58,207.522376 255.582,202.797376 C255.582,202.797376 255.582,123.908376 255.569,84.452376" fill="#390091" fill-rule="nonzero"></path>
        <path d="M201.892326,116.294008 L201.892326,129.767692 L215.36601,129.767692 L215.36601,116.294008 L222.102852,116.294008 L222.102852,129.767692 L235.576537,129.767692 L235.576537,136.504534 L222.102852,136.504534 L222.102852,149.978218 L235.576537,149.978218 L235.576537,156.71506 L222.102852,156.71506 L222.102852,170.188744 L215.36601,170.188744 L215.36601,156.71506 L201.892326,156.71506 L201.892326,170.188744 L195.155484,170.188744 L195.155484,156.71506 L181.6818,156.71506 L181.6818,149.978218 L195.155484,149.978218 L195.155484,136.504534 L181.6818,136.504534 L181.6818,129.767692 L195.155484,129.767692 L195.155484,116.294008 L201.892326,116.294008 Z M215.36601,136.504534 L201.892326,136.504534 L201.892326,149.978218 L215.36601,149.978218 L215.36601,136.504534 Z" fill="#FFFFFF"></path>
        <path d="M128.456752,48.625876 C163.600523,48.625876 194.283885,67.7121741 210.718562,96.0819435 L210.558192,95.808876 L169.209615,119.617159 C161.062959,105.823554 146.128136,96.5150717 128.996383,96.3233722 L128.456752,96.3203544 C102.331178,96.3203544 81.1506705,117.499743 81.1506705,143.625316 C81.1506705,152.168931 83.4284453,160.17752 87.3896469,167.094792 C95.543745,181.330045 110.872554,190.931398 128.456752,190.931398 C146.149522,190.931398 161.565636,181.208041 169.67832,166.820563 L169.481192,167.165876 L210.767678,191.083913 C194.51328,219.21347 164.25027,238.240861 129.514977,238.620102 L128.456752,238.625876 C93.2021701,238.625876 62.4315028,219.422052 46.0382398,190.902296 C38.0352471,176.979327 33.4561922,160.837907 33.4561922,143.625316 C33.4561922,91.1592636 75.9884604,48.625876 128.456752,48.625876 Z" fill="#FFFFFF" fill-rule="nonzero"></path>
    </g>
</svg>

<svg xmlns="http://www.w3.org/2000/svg" viewBox="0 0 255.582 287.253">
  <path fill="#a179dc" d="M255.569 84.452c-.002-4.83-1.035-9.098-3.124-12.76-2.052-3.603-5.125-6.622-9.247-9.009-34.025-19.619-68.083-39.178-102.097-58.817-9.17-5.294-18.061-5.1-27.163.27-13.543 7.986-81.348 46.833-101.553 58.536C4.064 67.49.015 74.862.013 84.443 0 123.898.013 163.353 0 202.808c0 4.724.991 8.91 2.988 12.517 2.053 3.711 5.169 6.813 9.386 9.254 20.206 11.703 88.02 50.547 101.56 58.536 9.106 5.373 17.997 5.565 27.17.27 34.015-19.64 68.075-39.199 102.105-58.818 4.217-2.44 7.333-5.544 9.386-9.252 1.994-3.608 2.987-7.793 2.987-12.518 0 0 0-78.889-.013-118.345"/>
  <path fill="#280068" d="M128.182 143.241 2.988 215.325c2.053 3.711 5.169 6.813 9.386 9.254 20.206 11.703 88.02 50.547 101.56 58.536 9.106 5.373 17.997 5.565 27.17.27 34.015-19.64 68.075-39.199 102.105-58.818 4.217-2.44 7.333-5.544 9.386-9.252l-124.413-72.074"/>
  <path fill="#390091" d="M255.569 84.452c-.002-4.83-1.035-9.098-3.124-12.76l-124.263 71.55 124.413 72.073c1.994-3.608 2.985-7.793 2.987-12.518 0 0 0-78.889-.013-118.345"/>
  <path fill="#fff" d="M201.892 116.294v13.474h13.474v-13.474h6.737v13.474h13.474v6.737h-13.474v13.473h13.474v6.737h-13.474v13.474h-6.737v-13.474h-13.474v13.474h-6.737v-13.474h-13.473v-6.737h13.473v-13.473h-13.473v-6.737h13.473v-13.474zm13.474 20.21h-13.474v13.474h13.474z"/>
  <path fill="#fff" d="M128.457 48.626c35.144 0 65.827 19.086 82.262 47.456l-.16-.273-41.35 23.808c-8.146-13.793-23.08-23.102-40.213-23.294l-.54-.003c-26.125 0-47.305 21.18-47.305 47.305a47.08 47.08 0 0 0 6.239 23.47c8.154 14.235 23.483 23.836 41.067 23.836 17.693 0 33.109-9.723 41.221-24.11l-.197.345 41.287 23.918c-16.255 28.13-46.518 47.157-81.253 47.536l-1.058.006c-35.255 0-66.025-19.204-82.419-47.723-8.003-13.923-12.582-30.065-12.582-47.277 0-52.466 42.532-95 95-95z"/>
</svg>
